!!!COM: Josquin des Prez
!!!CDT: ~1450-1521/08/27
!!!OTL@@LAT: Preter rerum seriem
!!!OTL2@@LAT: Virtus sancti spiritus
!!!AGN: Motet
!!!SCT: NJE 24.11
!!!SCA: New Josquin Edition 24.11
!!!voices:      6
**kern	**text	**kern	**text	**kern	**text	**kern	**text	**kern	**text	**kern	**text
*staff6	*staff6	*staff5	*staff5	*staff4	*staff4	*staff3	*staff3	*staff2	*staff2	*staff1	*staff1
*Ivox	*	*Ivox	*	*Ivox	*	*Ivox	*	*Ivox	*	*Ivox	*
*I"Bassus2	*	*I"Bassus1	*	*I"Tenor	*	*I"Altus2	*	*I"Altus1	*	*I"Superius	*
*I'B2	*	*I'B1	*	*I'T	*	*I'A2	*	*I'A1	*	*I'S	*
*>[A,B]	*>[A,B]	*>[A,B]	*>[A,B]	*>[A,B]	*>[A,B]	*>[A,B]	*>[A,B]	*>[A,B]	*>[A,B]	*>[A,B]	*>[A,B]
*>A	*>A	*>A	*>A	*>A	*>A	*>A	*>A	*>A	*>A	*>A	*>A
*clefF4	*	*clefF4	*	*clefGv2	*	*clefGv2	*	*clefGv2	*	*clefG2	*
*k[b-]	*	*k[b-]	*	*k[b-]	*	*k[b-]	*	*k[b-]	*	*k[b-]	*
*M2/1	*	*M2/1	*	*M2/1	*	*M2/1	*	*M2/1	*	*M2/1	*
*met(O2)	*	*met(O2)	*	*met(O2)	*	*met(O2)	*	*met(O2)	*	*met(O2)	*
!!section: Prima pars: Preter rerum seriem
!!!OMD: Prima pars: Preter rerum seriem
=1-	=1-	=1-	=1-	=1-	=1-	=1-	=1-	=1-	=1-	=1-	=1-
0r	.	1.GG	Pre-	[0G	Pre-	0r	.	0r	.	0r	.
.	.	2AA/	.	.	.	.	.	.	.	.	.
=2.	=2.	=2.	=2.	=2.	=2.	=2.	=2.	=2.	=2.	=2.	=2.
0r	.	1BB-	.	0G]	.	0r	.	0r	.	0r	.
.	.	1C	.	.	.	.	.	.	.	.	.
=3.	=3.	=3.	=3.	=3.	=3.	=3.	=3.	=3.	=3.	=3.	=3.
0r	.	1BB-	-ter	0G	-ter	0r	.	0r	.	0r	.
.	.	1GG	.	.	.	.	.	.	.	.	.
=4	=4	=4	=4	=4	=4	=4	=4	=4	=4	=4	=4
1.GG	Pre-	1.BB-	re-	[0G	re-	0r	.	0r	.	0r	.
2AA/	.	2C/	.	.	.	.	.	.	.	.	.
=5.	=5.	=5.	=5.	=5.	=5.	=5.	=5.	=5.	=5.	=5.	=5.
1BB-	.	1D	.	0G]	.	0r	.	0r	.	0r	.
1C	.	1E-i	.	.	.	.	.	.	.	.	.
=6.	=6.	=6.	=6.	=6.	=6.	=6.	=6.	=6.	=6.	=6.	=6.
1BB-	-ter	0D	-rum	0G	-rum	0r	.	0r	.	0r	.
1GG	.	.	.	.	.	.	.	.	.	.	.
=7	=7	=7	=7	=7	=7	=7	=7	=7	=7	=7	=7
1.BB-	re-	1.GG	se-	[0G	se-	0r	.	0r	.	0r	.
2C/	.	2AA/	.	.	.	.	.	.	.	.	.
=8.	=8.	=8.	=8.	=8.	=8.	=8.	=8.	=8.	=8.	=8.	=8.
1D	.	2BB-/	.	0G]	.	0r	.	0r	.	0r	.
.	.	2GG/	.	.	.	.	.	.	.	.	.
1E-i	.	1G	.	.	.	.	.	.	.	.	.
=9.	=9.	=9.	=9.	=9.	=9.	=9.	=9.	=9.	=9.	=9.	=9.
2D\	-rum	2.F\	.	0A	-ri-	0r	.	0r	.	0r	.
2.F\	se-	.	.	.	.	.	.	.	.	.	.
.	.	4G\	.	.	.	.	.	.	.	.	.
.	.	2A\	.	.	.	.	.	.	.	.	.
4G\	.	.	.	.	.	.	.	.	.	.	.
2A\	.	[2D\	.	.	.	.	.	.	.	.	.
=10	=10	=10	=10	=10	=10	=10	=10	=10	=10	=10	=10
2.D\	.	4D\]	.	[0F	-em,	0r	.	0r	.	0r	.
.	.	4E\	.	.	.	.	.	.	.	.	.
.	.	2F\	.	.	.	.	.	.	.	.	.
4E\	.	.	.	.	.	.	.	.	.	.	.
2F\	.	2.BB-/	.	.	.	.	.	.	.	.	.
[2BB-/	.	.	.	.	.	.	.	.	.	.	.
.	.	4C/	.	.	.	.	.	.	.	.	.
=11.	=11.	=11.	=11.	=11.	=11.	=11.	=11.	=11.	=11.	=11.	=11.
4BB-/]	.	4D\	.	0F]	.	0r	.	0r	.	0r	.
4C/	.	4E\	.	.	.	.	.	.	.	.	.
4D\	.	2.F\	.	.	.	.	.	.	.	.	.
4E\	.	.	.	.	.	.	.	.	.	.	.
4F\	.	.	.	.	.	.	.	.	.	.	.
4G\	.	4E\	.	.	.	.	.	.	.	.	.
[2A\	.	4D\	.	.	.	.	.	.	.	.	.
.	.	4C/	.	.	.	.	.	.	.	.	.
=12.	=12.	=12.	=12.	=12.	=12.	=12.	=12.	=12.	=12.	=12.	=12.
4A\]	.	2D\	.	0r	.	0r	.	0r	.	0r	.
4G\	.	.	.	.	.	.	.	.	.	.	.
1G	.	2BB-/	.	.	.	.	.	.	.	.	.
.	.	1AA	-ri-	.	.	.	.	.	.	.	.
2F#i\	-ri-	.	.	.	.	.	.	.	.	.	.
=13	=13	=13	=13	=13	=13	=13	=13	=13	=13	=13	=13
0G	-em,	1GG	-em,	1.B-	pre-	1.G	Pre-	0r	.	[0g	Pre-
.	.	[1G	pre-	.	.	.	.	.	.	.	.
.	.	.	.	2c\	.	2A/	.	.	.	.	.
=14.	=14.	=14.	=14.	=14.	=14.	=14.	=14.	=14.	=14.	=14.	=14.
0r	.	1G]	.	1d	.	1B-	.	0r	.	0g]	.
.	.	1C	-ter	1e-i	.	1c	.	.	.	.	.
=15.	=15.	=15.	=15.	=15.	=15.	=15.	=15.	=15.	=15.	=15.	=15.
0r	.	0G	re-	2d\	-ter	1B-	-ter	0r	.	0g	-ter
.	.	.	.	2G/	.	.	.	.	.	.	.
.	.	.	.	[1B-	re-	1G	.	.	.	.	.
=16	=16	=16	=16	=16	=16	=16	=16	=16	=16	=16	=16
1r	.	0GG	-rum	2B-\]	.	1.B-	re-	1.G	Pre-	[0g	re-
.	.	.	.	2c\	.	.	.	.	.	.	.
[1G	pre-	.	.	1d	.	.	.	.	.	.	.
.	.	.	.	.	.	2c\	.	2A/	.	.	.
=17.	=17.	=17.	=17.	=17.	=17.	=17.	=17.	=17.	=17.	=17.	=17.
1G]	.	0r	.	[0G	-rum	1d	.	1B-	.	0g]	.
1C	-ter	.	.	.	.	1e-i	.	1c	.	.	.
=18.	=18.	=18.	=18.	=18.	=18.	=18.	=18.	=18.	=18.	=18.	=18.
0G	re-	1r	.	1G]	.	0d	-rum	1B-	-ter	0g	-rum
.	.	[1G	se-	[1B-	se-	.	.	1G	.	.	.
=19	=19	=19	=19	=19	=19	=19	=19	=19	=19	=19	=19
1GG	-rum	1G]	.	2B-\]	.	1.G	se-	1.B-	re-	[0g	se-
.	.	.	.	2c\	.	.	.	.	.	.	.
[1G	se-	1GG	.	[1d	.	.	.	.	.	.	.
.	.	.	.	.	.	2A/	.	2c\	.	.	.
=20.	=20.	=20.	=20.	=20.	=20.	=20.	=20.	=20.	=20.	=20.	=20.
1G]	.	0G	-ri-	2d\]	.	2B-\	.	1d	.	0g]	.
.	.	.	.	2B-\	.	2G/	.	.	.	.	.
1C	.	.	.	1c	-ri-	1g	-ri-	1e-i	.	.	.
=21.	=21.	=21.	=21.	=21.	=21.	=21.	=21.	=21.	=21.	=21.	=21.
[0F	-ri-	[0D	-em	0A	-em	1f	-em,	1d	-rum	0a	-ri-
.	.	.	.	.	.	2d\	se-	1f	.	.	.
.	.	.	.	.	.	[2f\	.	.	.	.	.
=22	=22	=22	=22	=22	=22	=22	=22	=22	=22	=22	=22
1F]	.	0D]	.	1r	.	4f\]	.	2d\	se-	[0f	-em,
.	.	.	.	.	.	4e\	.	.	.	.	.
.	.	.	.	.	.	1d	.	2.f\	.	.	.
1D	.	.	.	1A	Pa-	.	.	.	.	.	.
.	.	.	.	.	.	.	.	4e\	.	.	.
.	.	.	.	.	.	4c\	.	[2d\	.	.	.
.	.	.	.	.	.	4B-\	.	.	.	.	.
=23.	=23.	=23.	=23.	=23.	=23.	=23.	=23.	=23.	=23.	=23.	=23.
0D	em	1r	.	2A/	-rit	2A/	.	2d\]	.	0f_	.
.	.	.	.	2.F/	de-	2D/	-ri-	4c\	.	.	.
.	.	.	.	.	.	.	.	4B-\	.	.	.
.	.	1D	Pa-	.	.	1d	-em	2A/	.	.	.
.	.	.	.	4G/	.	.	.	.	.	.	.
.	.	.	.	2A/	.	.	.	2D/	-ri-	.	.
=24.	=24.	=24.	=24.	=24.	=24.	=24.	=24.	=24.	=24.	=24.	=24.
1r	.	2D\	-rit	1D	-um,	2r	.	0d	-em	0f]	.
.	.	2.BB-/	de-	.	.	2.D/	pa-	.	.	.	.
1D	Pa-	.	.	1r	.	.	.	.	.	.	.
.	.	4C/	.	.	.	4E/	.	.	.	.	.
.	.	2D\	.	.	.	2F/	.	.	.	.	.
=25	=25	=25	=25	=25	=25	=25	=25	=25	=25	=25	=25
2D\	-rit	0GG	-um	[0B-	pa-	[0G	-rit	1r	.	0r	.
2.BB-/	de-	.	.	.	.	.	.	.	.	.	.
.	.	.	.	.	.	.	.	1d	pa-	.	.
4C/	.	.	.	.	.	.	.	.	.	.	.
2D\	.	.	.	.	.	.	.	.	.	.	.
=26.	=26.	=26.	=26.	=26.	=26.	=26.	=26.	=26.	=26.	=26.	=26.
0GG	-um	2r	.	0B-]	.	0G]	.	2d\	-rit	0r	.
.	.	2.G\	ho-	.	.	.	.	2.B-\	de-	.	.
.	.	4F\	.	.	.	.	.	4c\	.	.	.
.	.	2D\	.	.	.	.	.	2d\	.	.	.
=27.	=27.	=27.	=27.	=27.	=27.	=27.	=27.	=27.	=27.	=27.	=27.
2r	.	2.E-\	.	0B-	-rit	0r	.	1G	-um,	0r	.
2.G\	ho-	.	.	.	.	.	.	.	.	.	.
.	.	4D\	-mi-	.	.	.	.	.	.	.	.
.	.	1BB-	-nem,	.	.	.	.	1d	.	.	.
4F\	.	.	.	.	.	.	.	.	.	.	.
2D\	.	.	.	.	.	.	.	.	.	.	.
=28	=28	=28	=28	=28	=28	=28	=28	=28	=28	=28	=28
2.E-i\	.	2r	.	[0B-	de-	1G	de-	0r	.	0r	.
.	.	2.G\	ho-	.	.	.	.	.	.	.	.
4D\	-mi-	.	.	.	.	.	.	.	.	.	.
1BB-	-nem,	.	.	.	.	1d	-um	.	.	.	.
.	.	4F\	.	.	.	.	.	.	.	.	.
.	.	2D\	.	.	.	.	.	.	.	.	.
=29.	=29.	=29.	=29.	=29.	=29.	=29.	=29.	=29.	=29.	=29.	=29.
2r	.	2.E-i\	.	0B-]	.	0r	.	1G	de-	0r	.
2.G\	ho-	.	.	.	.	.	.	.	.	.	.
.	.	4D\	-mi-	.	.	.	.	.	.	.	.
.	.	1BB-	-nem,	.	.	.	.	1d	-um,	.	.
4F\	.	.	.	.	.	.	.	.	.	.	.
2D\	.	.	.	.	.	.	.	.	.	.	.
=30.	=30.	=30.	=30.	=30.	=30.	=30.	=30.	=30.	=30.	=30.	=30.
2.E-i\	.	2r	.	0B-	-um	1G	ho-	0r	.	0r	.
.	.	1G	ho-	.	.	.	.	.	.	.	.
4D\	.	.	.	.	.	.	.	.	.	.	.
2BB-/	.	.	.	.	.	2.d\	.	.	.	.	.
[2D\	.	[2F\	.	.	.	.	.	.	.	.	.
.	.	.	.	.	.	4e\	.	.	.	.	.
=31	=31	=31	=31	=31	=31	=31	=31	=31	=31	=31	=31
2D\]	.	4F\]	.	0A	ho-	2f\	.	0r	.	0r	.
.	.	4D\	.	.	.	.	.	.	.	.	.
2C/	.	2E\	.	.	.	2e\	.	.	.	.	.
2AA/	.	2F\	.	.	.	2.c\	.	.	.	.	.
[2C/	.	[2E\	.	.	.	.	.	.	.	.	.
.	.	.	.	.	.	4d\	.	.	.	.	.
=32.	=32.	=32.	=32.	=32.	=32.	=32.	=32.	=32.	=32.	=32.	=32.
2C/]	.	4E\]	.	0G	.	2e-i\	.	0r	.	0r	.
.	.	4C/	.	.	.	.	.	.	.	.	.
2BB-/	.	2D\	.	.	.	2d\	.	.	.	.	.
2GG/	.	2E-i\	.	.	.	2B-\	.	.	.	.	.
[2BB-/	.	[2D\	.	.	.	[2d\	.	.	.	.	.
=33.	=33.	=33.	=33.	=33.	=33.	=33.	=33.	=33.	=33.	=33.	=33.
2BB-/]	.	2D\]	.	0F	-mi-	2d\]	.	0r	.	0r	.
2C/	.	2E-i\	.	.	.	1c	.	.	.	.	.
1AA	-mi-	1C	-mi-	.	.	.	.	.	.	.	.
.	.	.	.	.	.	4B-\	-mi-	.	.	.	.
.	.	.	.	.	.	4A/	.	.	.	.	.
=34	=34	=34	=34	=34	=34	=34	=34	=34	=34	=34	=34
[0GG	-nem,	0D	-nem,	[0G	-nem,	1B-	-nem,	1d	pa-	[0b-	Pa-
.	.	.	.	.	.	2r	.	2d\	-rit	.	.
.	.	.	.	.	.	2d\	pa-	[2B-\	de-	.	.
=35.	=35.	=35.	=35.	=35.	=35.	=35.	=35.	=35.	=35.	=35.	=35.
0GG_	.	1r	.	0G]	.	2d\	-rit	4B-\]	.	0b-]	.
.	.	.	.	.	.	.	.	4c\	.	.	.
.	.	.	.	.	.	2.B-\	de-	2d\	.	.	.
.	.	1B-	pa-	.	.	.	.	1G	-um	.	.
.	.	.	.	.	.	4c\	.	.	.	.	.
.	.	.	.	.	.	2d\	.	.	.	.	.
=36.	=36.	=36.	=36.	=36.	=36.	=36.	=36.	=36.	=36.	=36.	=36.
0GG]	.	2B-\	-rit	1r	.	0G	-um	2r	.	0b-	-rit
.	.	2.G\	de-	.	.	.	.	2.g\	ho-	.	.
.	.	.	.	1B-	pa-	.	.	.	.	.	.
.	.	4A\	.	.	.	.	.	4f\	.	.	.
.	.	2B-\	.	.	.	.	.	2d\	.	.	.
=37	=37	=37	=37	=37	=37	=37	=37	=37	=37	=37	=37
1r	.	2.E-i\	-um	2B-\	-rit	2r	.	2.e-\	.	[0b-	de-
.	.	.	.	2.G/	de-	2.g\	ho-	.	.	.	.
.	.	4F\	.	.	.	.	.	4d\	-mi-	.	.
1B-	Pa-	1G	.	.	.	.	.	1d	-nem,	.	.
.	.	.	.	4A/	.	4f\	.	.	.	.	.
.	.	.	.	2B-\	.	2d\	.	.	.	.	.
=38.	=38.	=38.	=38.	=38.	=38.	=38.	=38.	=38.	=38.	=38.	=38.
2B-\	-rit	0r	.	2.E-/	-um	2.e-\	.	2r	.	0b-]	.
2.G\	de-	.	.	.	.	.	.	2.g\	ho-	.	.
.	.	.	.	4F/	.	4d\	-mi-	.	.	.	.
.	.	.	.	1G	.	1B-	-nem,	.	.	.	.
4A\	.	.	.	.	.	.	.	4f\	.	.	.
2B-\	.	.	.	.	.	.	.	2d\	.	.	.
=39.	=39.	=39.	=39.	=39.	=39.	=39.	=39.	=39.	=39.	=39.	=39.
2.E-i\	-um	2r	.	0r	.	2r	.	2.e-\	.	0b-	-um
.	.	2.G\	ho-	.	.	2.g\	ho-	.	.	.	.
4F\	.	.	.	.	.	.	.	4d\	.	.	.
1G	.	.	.	.	.	.	.	2.B-\	.	.	.
.	.	4A\	.	.	.	4f\	.	.	.	.	.
.	.	4B-\	-mi-	.	.	[2d\	.	.	.	.	.
.	.	4G\	.	.	.	.	.	4c\	.	.	.
=40	=40	=40	=40	=40	=40	=40	=40	=40	=40	=40	=40
1D	ho-	1A	-nem,	2r	.	4d\]	.	2.d\	.	0a	ho-
.	.	.	.	.	.	4e\	.	.	.	.	.
.	.	.	.	2.F/	ho-	2.f\	.	.	.	.	.
.	.	.	.	.	.	.	.	4c\	.	.	.
1F	.	1r	.	.	.	.	.	2.A/	.	.	.
.	.	.	.	4G/	.	4e\	.	.	.	.	.
.	.	.	.	4A/	-mi-	[2c\	.	.	.	.	.
.	.	.	.	4F/	.	.	.	4B-\	.	.	.
=41.	=41.	=41.	=41.	=41.	=41.	=41.	=41.	=41.	=41.	=41.	=41.
1C	-mi-	2r	.	1G	-nem,	4c\]	.	2.c\	.	0g	.
.	.	.	.	.	.	4d\	.	.	.	.	.
.	.	2.C/	ho-	.	.	2.e-\	.	.	.	.	.
.	.	.	.	.	.	.	.	4B-\	.	.	.
1E-i	.	.	.	1r	.	.	.	2.G/	.	.	.
.	.	4D\	.	.	.	4B-\	.	.	.	.	.
.	.	4E-i\	-mi-	.	.	2c\	-mi-	.	.	.	.
.	.	4C/	.	.	.	.	.	4A/	.	.	.
=42.	=42.	=42.	=42.	=42.	=42.	=42.	=42.	=42.	=42.	=42.	=42.
0D	.	1F	-nem,	2r	.	[0d	-nem	2.B-\	-mi-	0f	-mi-
.	.	.	.	2.F/	ho-	.	.	.	.	.	.
.	.	.	.	.	.	.	.	4c\	.	.	.
.	.	1r	.	.	.	.	.	1A	.	.	.
.	.	.	.	4G/	.	.	.	.	.	.	.
.	.	.	.	4A/	-mi-	.	.	.	.	.	.
.	.	.	.	4F/	.	.	.	.	.	.	.
=43	=43	=43	=43	=43	=43	=43	=43	=43	=43	=43	=43
[0GG	-nem,	2r	.	2B-\	-nem,	0d]	.	[0G	-nem	[0g	-nem,
.	.	2.B-\	ho-	4G/	ho-	.	.	.	.	.	.
.	.	.	.	4A/	.	.	.	.	.	.	.
.	.	.	.	4B-\	.	.	.	.	.	.	.
.	.	4A\	.	4c\	.	.	.	.	.	.	.
.	.	4G\	.	[2d\	.	.	.	.	.	.	.
.	.	4F\	.	.	.	.	.	.	.	.	.
=44.	=44.	=44.	=44.	=44.	=44.	=44.	=44.	=44.	=44.	=44.	=44.
0GG]	.	2G\	.	4d\]	.	1r	.	0G_	.	0g]	.
.	.	.	.	4c\	.	.	.	.	.	.	.
.	.	2E-i\	.	1c	.	.	.	.	.	.	.
.	.	1D	-mi-	.	.	1d	Vir-	.	.	.	.
.	.	.	.	2Bni\	-mi-	.	.	.	.	.	.
=45.	=45.	=45.	=45.	=45.	=45.	=45.	=45.	=45.	=45.	=45.	=45.
1r	.	0C	-nem	1.c	-nem,	1e-i	-go	0G]	.	0r	.
1C	Vir-	.	.	.	.	1e-i	ma-	.	.	.	.
.	.	.	.	2G/	ho-	.	.	.	.	.	.
=46	=46	=46	=46	=46	=46	=46	=46	=46	=46	=46	=46
0D	-go	0r	.	2.B-\	.	0d	-ter,	2r	.	0f	Vir-
.	.	.	.	.	.	.	.	2d\	Vir-	.	.
.	.	.	.	4c\	.	.	.	.	.	.	.
.	.	.	.	1A	-mi-	.	.	2d\	-go	.	.
.	.	.	.	.	.	.	.	[2d\	ma-	.	.
=47.	=47.	=47.	=47.	=47.	=47.	=47.	=47.	=47.	=47.	=47.	=47.
0E-i	ma-	1r	.	0G	-nem	0r	.	2d\]	.	0g	-go
.	.	.	.	.	.	.	.	4c\	.	.	.
.	.	.	.	.	.	.	.	4B-\	.	.	.
.	.	1C	Vir-	.	.	.	.	1c	.	.	.
=48.	=48.	=48.	=48.	=48.	=48.	=48.	=48.	=48.	=48.	=48.	=48.
0D	-ter,	1F	-go	1r	.	2r	.	0d	-ter,	0a	ma-
.	.	.	.	.	.	2d\	vir-	.	.	.	.
.	.	1D	.	1F	Vir-	2d\	-go	.	.	.	.
.	.	.	.	.	.	[2d\	ma-	.	.	.	.
=49	=49	=49	=49	=49	=49	=49	=49	=49	=49	=49	=49
1r	.	0E-i	ma-	0G	-go	2d\]	.	0r	.	0g	-ter,
.	.	.	.	.	.	4c\	.	.	.	.	.
.	.	.	.	.	.	4B-\	.	.	.	.	.
1C	Vir-	.	.	.	.	1c	.	.	.	.	.
=50.	=50.	=50.	=50.	=50.	=50.	=50.	=50.	=50.	=50.	=50.	=50.
1F	-go	0D	-ter,	0A	ma-	0d	-ter,	2r	.	1r	.
.	.	.	.	.	.	.	.	2d\	vir-	.	.
1D	.	.	.	.	.	.	.	2d\	-go	1f	Vir-
.	.	.	.	.	.	.	.	[2d\	ma-	.	.
=51.	=51.	=51.	=51.	=51.	=51.	=51.	=51.	=51.	=51.	=51.	=51.
0E-i	ma-	1r	.	0G	-ter,	0r	.	2d\]	.	0g	-go
.	.	.	.	.	.	.	.	4c\	.	.	.
.	.	.	.	.	.	.	.	4B-\	.	.	.
.	.	1C	Vir-	.	.	.	.	1c	.	.	.
=52	=52	=52	=52	=52	=52	=52	=52	=52	=52	=52	=52
0D	-ter,	1F	-go	1r	.	2r	.	0d	-ter,-	0a	ma-
.	.	.	.	.	.	2d\	vir-	.	.	.	.
.	.	1D	.	1F	vir-	2d\	-go	.	.	.	.
.	.	.	.	.	.	[2d\	ma-	.	.	.	.
=53.	=53.	=53.	=53.	=53.	=53.	=53.	=53.	=53.	=53.	=53.	=53.
0r	.	0E-i	ma-	2.G/	-go	2d\]	.	2r	.	0g	-ter,
.	.	.	.	.	.	4c\	.	2g\	-vir-	.	.
.	.	.	.	4A/	.	4B-\	.	.	.	.	.
.	.	.	.	4B-\	.	1c	.	2g\	-go	.	.
.	.	.	.	4c\	.	.	.	.	.	.	.
.	.	.	.	[2B-\	.	.	.	[2g\	ma-	.	.
=54.	=54.	=54.	=54.	=54.	=54.	=54.	=54.	=54.	=54.	=54.	=54.
0r	.	0D	-ter,	2B-\]	.	1.d	.	2g\]	.	1r	.
.	.	.	.	4A/	.	.	.	4f#i\	.	.	.
.	.	.	.	4G/	.	.	.	4e\	.	.	.
.	.	.	.	1A	ma-	.	.	1f#i	.	1a	vir-
.	.	.	.	.	.	2c\	.	.	.	.	.
=55	=55	=55	=55	=55	=55	=55	=55	=55	=55	=55	=55
0r	.	0r	.	0G	-ter.	2B-\	.	1.g	.	1.b-	-go
.	.	.	.	.	.	2A/	.	.	.	.	.
.	.	.	.	.	.	[1G	.	.	.	.	.
.	.	.	.	.	.	.	.	4f\	.	4a/	.
.	.	.	.	.	.	.	.	4e\	.	4g/	.
=56.	=56.	=56.	=56.	=56.	=56.	=56.	=56.	=56.	=56.	=56.	=56.
0r	.	0r	.	0r	.	2G/]	.	2d\	.	2b-\	.
.	.	.	.	.	.	2D/	.	2f\	.	2a/	.
.	.	.	.	.	.	2E/	.	2e\	.	2.cc\	ma-
.	.	.	.	.	.	[2F/	.	2d\	.	.	.
.	.	.	.	.	.	.	.	.	.	4b-\	.
=57.	=57.	=57.	=57.	=57.	=57.	=57.	=57.	=57.	=57.	=57.	=57.
0r	.	0r	.	0r	.	2F/]	.	2c\	.	4a/	.
.	.	.	.	.	.	.	.	.	.	4g/	.
.	.	.	.	.	.	2G/	.	2B-\	.	1g	.
.	.	.	.	.	.	1D	-ter,	1A	.	.	.
.	.	.	.	.	.	.	.	.	.	2f#i/	.
=58	=58	=58	=58	=58	=58	=58	=58	=58	=58	=58	=58
1GG	Nec	0r	.	0G	Nec	2.B-\	ma-	0G	-ter.	0g	-ter.
.	.	.	.	.	.	4c\	.	.	.	.	.
2GG/	vir	.	.	.	.	2d\	.	.	.	.	.
[2C/	tan-	.	.	.	.	2e-i\	.	.	.	.	.
=59.	=59.	=59.	=59.	=59.	=59.	=59.	=59.	=59.	=59.	=59.	=59.
2C/]	.	0r	.	1G	vir	1d	.	0r	.	0r	.
2BB-/	.	.	.	.	.	.	.	.	.	.	.
2C/	.	.	.	[1G	tan-	1G	-ter.	.	.	.	.
2E-i\	.	.	.	.	.	.	.	.	.	.	.
=60.	=60.	=60.	=60.	=60.	=60.	=60.	=60.	=60.	=60.	=60.	=60.
2D\	-git	1GG	Nec	1G]	.	0r	.	0r	.	0r	.
2.G\	vir-	.	.	.	.	.	.	.	.	.	.
.	.	2GG/	vir	1G	-git	.	.	.	.	.	.
4F\	.	.	.	.	.	.	.	.	.	.	.
4E-i\	.	[2C/	tan-	.	.	.	.	.	.	.	.
4D\	.	.	.	.	.	.	.	.	.	.	.
=61	=61	=61	=61	=61	=61	=61	=61	=61	=61	=61	=61
2E-i\	.	2C/]	.	0G	vir-	0r	.	0r	.	0r	.
2D\	.	2BB-/	.	.	.	.	.	.	.	.	.
2E-i\	.	2C/	.	.	.	.	.	.	.	.	.
2G\	.	2E-i\	.	.	.	.	.	.	.	.	.
=62.	=62.	=62.	=62.	=62.	=62.	=62.	=62.	=62.	=62.	=62.	=62.
2F\	.	2D\	-git	1A	-gi-	0r	.	0r	.	0r	.
2.D\	.	2.F\	vir-	.	.	.	.	.	.	.	.
.	.	.	.	[1F	-nem,	.	.	.	.	.	.
4E-i\	.	4E-i\	.	.	.	.	.	.	.	.	.
[2F\	.	[2D\	.	.	.	.	.	.	.	.	.
=63.	=63.	=63.	=63.	=63.	=63.	=63.	=63.	=63.	=63.	=63.	=63.
2F\]	.	2D\]	.	1F]	.	0r	.	0r	.	0r	.
4E-i\	-gi-	4C/	-gi-	.	.	.	.	.	.	.	.
4D\	.	4BB-/	.	.	.	.	.	.	.	.	.
1C	-nem	1AA	-nem	1r	.	.	.	.	.	.	.
=64	=64	=64	=64	=64	=64	=64	=64	=64	=64	=64	=64
0r	.	0r	.	2.B-\	vir-	0r	.	1G	Nec	0g	Nec
.	.	.	.	4c\	.	.	.	.	.	.	.
.	.	.	.	2d\	.	.	.	2G/	vir-	.	.
.	.	.	.	2e-i\	.	.	.	[2c\	-tan-	.	.
=65.	=65.	=65.	=65.	=65.	=65.	=65.	=65.	=65.	=65.	=65.	=65.
0r	.	0r	.	1d	-gi-	0r	.	2c\]	.	1g	vir
.	.	.	.	.	.	.	.	2B-\	.	.	.
.	.	.	.	1c	-nem	.	.	2c\	.	[1g	tan-
.	.	.	.	.	.	.	.	2e-i\	.	.	.
=66.	=66.	=66.	=66.	=66.	=66.	=66.	=66.	=66.	=66.	=66.	=66.
0r	.	0r	.	0r	.	1G	Nec	2d\	-git	1g]	.
.	.	.	.	.	.	.	.	2.g\	vir-	.	.
.	.	.	.	.	.	2G/	vir-	.	.	1g	-git
.	.	.	.	.	.	.	.	4f\	.	.	.
.	.	.	.	.	.	[2c\	-tan-	4e-i\	.	.	.
.	.	.	.	.	.	.	.	4d\	.	.	.
=67	=67	=67	=67	=67	=67	=67	=67	=67	=67	=67	=67
0r	.	0r	.	0r	.	2c\]	.	2e-i\	.	0g	vir-
.	.	.	.	.	.	2B-\	.	2d\	.	.	.
.	.	.	.	.	.	2c\	.	2e-i\	.	.	.
.	.	.	.	.	.	2e-i\	.	2g\	.	.	.
=68.	=68.	=68.	=68.	=68.	=68.	=68.	=68.	=68.	=68.	=68.	=68.
0r	.	0r	.	0r	.	2d\	-git	2f\	.	1a	-gi-
.	.	.	.	.	.	2.f\	vir-	2.d\	.	.	.
.	.	.	.	.	.	.	.	.	.	[1f	-nem
.	.	.	.	.	.	4e-i\	.	4e-i\	.	.	.
.	.	.	.	.	.	[2d\	.	[2f\	.	.	.
=69.	=69.	=69.	=69.	=69.	=69.	=69.	=69.	=69.	=69.	=69.	=69.
0r	.	0r	.	0r	.	2d\]	.	2f\]	.	1f]	.
.	.	.	.	.	.	4c\	-gi-	4e-i\	-gi-	.	.
.	.	.	.	.	.	4B-\	.	4d\	.	.	.
.	.	.	.	.	.	1A	-nem	1c	-nem	1r	.
=70	=70	=70	=70	=70	=70	=70	=70	=70	=70	=70	=70
0G	Nec	0GG	Nec	0B-	Nec	0r	.	0r	.	0r	.
=71.	=71.	=71.	=71.	=71.	=71.	=71.	=71.	=71.	=71.	=71.	=71.
1G	pro-	1GG	pro-	1B-	pro-	0r	.	0r	.	0r	.
[1F	-lis	[1D	-lis	[1B-	-lis	.	.	.	.	.	.
=72.	=72.	=72.	=72.	=72.	=72.	=72.	=72.	=72.	=72.	=72.	=72.
2F\]	.	2D\]	.	1B-]	.	0r	.	0r	.	0r	.
4E\	.	4C/	.	.	.	.	.	.	.	.	.
4D\	.	4BB-/	.	.	.	.	.	.	.	.	.
2G\	.	2E-\	.	1B-	o-	.	.	.	.	.	.
[2F\	o-	[2D\	o-	.	.	.	.	.	.	.	.
=73	=73	=73	=73	=73	=73	=73	=73	=73	=73	=73	=73
2F\]	.	2D\]	.	1A	-ri-	0r	.	0r	.	0r	.
2.E\	-ri-	2.C/	-ri-	.	.	.	.	.	.	.	.
.	.	.	.	1G	.	.	.	.	.	.	.
4D\	.	4BB-/	.	.	.	.	.	.	.	.	.
[2D\	.	2GG/	.	.	.	.	.	.	.	.	.
=74.	=74.	=74.	=74.	=74.	=74.	=74.	=74.	=74.	=74.	=74.	=74.
2D\]	.	1AA	-gi-	1F#i	-gi-	0r	.	0r	.	0r	.
2C/	-gi-	.	.	.	.	.	.	.	.	.	.
[1D	-nem	[1GG	-nem	[1G	-nem	.	.	.	.	.	.
=75.	=75.	=75.	=75.	=75.	=75.	=75.	=75.	=75.	=75.	=75.	=75.
1D]	.	1GG]	.	1G]	.	0G	Nec	0g	Nec	0b-	Nec
1r	.	1r	.	1r	.	.	.	.	.	.	.
=76	=76	=76	=76	=76	=76	=76	=76	=76	=76	=76	=76
0r	.	0r	.	0r	.	1G	pro-	1g	pro-	1b-	pro-
.	.	.	.	.	.	[1d	-lis	[1f	-lis	[1b-	-lis
=77.	=77.	=77.	=77.	=77.	=77.	=77.	=77.	=77.	=77.	=77.	=77.
0r	.	0r	.	0r	.	2d\]	.	2f\]	.	1b-]	.
.	.	.	.	.	.	4c\	.	4e\	.	.	.
.	.	.	.	.	.	4B-\	.	4d\	.	.	.
.	.	.	.	.	.	2e-\	.	2g\	.	1b-	o-
.	.	.	.	.	.	[2d\	o-	[2f\	o-	.	.
=78.	=78.	=78.	=78.	=78.	=78.	=78.	=78.	=78.	=78.	=78.	=78.
0r	.	0r	.	0r	.	2d\]	.	2f\]	.	1a	-ri-
.	.	.	.	.	.	2.c\	-ri-	2.e\	-ri-	.	.
.	.	.	.	.	.	.	.	.	.	1g	.
.	.	.	.	.	.	4B-\	.	4d\	.	.	.
.	.	.	.	.	.	2G/	.	[2d\	.	.	.
=79	=79	=79	=79	=79	=79	=79	=79	=79	=79	=79	=79
0D	No-	1r	.	0r	.	1A	-gi-	4d\]	.	1f#i	-gi-
.	.	.	.	.	.	.	.	4c\	.	.	.
.	.	.	.	.	.	.	.	2A/	.	.	.
.	.	1GG	No-	.	.	[1G	-nem	1B-	-gi-	[1g	-nem
=80.	=80.	=80.	=80.	=80.	=80.	=80.	=80.	=80.	=80.	=80.	=80.
0E	-vit	1.C	-vit	1r	.	1G]	.	0c	-nem	1g]	.
.	.	.	.	[1c	No-	1r	.	.	.	1g	No-
.	.	2BB-/	.	.	.	.	.	.	.	.	.
=81.	=81.	=81.	=81.	=81.	=81.	=81.	=81.	=81.	=81.	=81.	=81.
0C	pa-	0AA	pa-	2c\]	.	0F	No-	0r	.	2a/	-vit
.	.	.	.	2c\	-vit	.	.	.	.	1cc	pa-
.	.	.	.	1c	pa-	.	.	.	.	.	.
.	.	.	.	.	.	.	.	.	.	4b-\	.
.	.	.	.	.	.	.	.	.	.	4a/	.
=82	=82	=82	=82	=82	=82	=82	=82	=82	=82	=82	=82
1D	-ter,	0GG	-ter,	1B-	-ter,	0G	-vit	1.d	No-	2b-\	.
.	.	.	.	.	.	.	.	.	.	2g/	.
1G	.	.	.	2r	.	.	.	.	.	1b-	.
.	.	.	.	[2d\	no-	.	.	2d\	-vit	.	.
=83.	=83.	=83.	=83.	=83.	=83.	=83.	=83.	=83.	=83.	=83.	=83.
1.F	pa-	1D	no-	2d\]	.	[0A	pa-	1d	pa-	2a/	-ter,
.	.	.	.	2d\	-vit	.	.	.	.	4d/	pa-
.	.	.	.	.	.	.	.	.	.	4e/	.
.	.	1D	-vit	1d	pa-	.	.	1A	-ter,	4f/	.
.	.	.	.	.	.	.	.	.	.	4g/	.
2D\	.	.	.	.	.	.	.	.	.	[2a/	.
=84.	=84.	=84.	=84.	=84.	=84.	=84.	=84.	=84.	=84.	=84.	=84.
1D	-ter,	0D	pa-	1A	-ter,	0A]	.	2r	.	4a/]	.
.	.	.	.	.	.	.	.	.	.	4g/	.
.	.	.	.	.	.	.	.	1d	no-	1g	.
2r	.	.	.	2r	.	.	.	.	.	.	.
[2D\	no-	.	.	[2d\	no-	.	.	2d\	-vit	2f#i/	.
=85	=85	=85	=85	=85	=85	=85	=85	=85	=85	=85	=85
2D\]	.	0GG	-ter.	2d\]	.	[0Gl	-ter.	1d	pa-	[0gl	-ter.
2D\	-vit	.	.	2d\	-vit	.	.	.	.	.	.
1D	pa-	.	.	1d	pa-	.	.	[1B-	.	.	.
=86.	=86.	=86.	=86.	=86.	=86.	=86.	=86.	=86.	=86.	=86.	=86.
[0GGl	-ter.	[0Gl	.	[0B-l	-ter.	0G_	.	2B-\]	.	0g_	.
.	.	.	.	.	.	.	.	4A/	.	.	.
.	.	.	.	.	.	.	.	4G/	.	.	.
.	.	.	.	.	.	.	.	2.B-\	.	.	.
.	.	.	.	.	.	.	.	4c\	.	.	.
=87.	=87.	=87.	=87.	=87.	=87.	=87.	=87.	=87.	=87.	=87.	=87.
0GG]	.	0G]	.	0B-]	.	0G]	.	0dl	-ter.	0g]	.
!!LO:LB:i:g=z
=88||	=88||	=88||	=88||	=88||	=88||	=88||	=88||	=88||	=88||	=88||	=88||
*>B	*>B	*>B	*>B	*>B	*>B	*>B	*>B	*>B	*>B	*>B	*>B
*clefF4	*	*clefF4	*	*clefGv2	*	*clefGv2	*	*clefGv2	*	*clefG2	*
*k[b-]	*	*k[b-]	*	*k[b-]	*	*k[b-]	*	*k[b-]	*	*k[b-]	*
*M2/1	*	*M2/1	*	*M2/1	*	*M2/1	*	*M2/1	*	*M2/1	*
*met(C|)	*	*met(C|)	*	*met(C|)	*	*met(C|)	*	*met(C|)	*	*met(C|)	*
!!section: Secunda pars: Virtus sancti spiritus
!!!OMD: Secunda pars: Virtus sancti spiritus
0r	.	0r	.	2.B-\	Vir-	2r	.	0r	.	0b-	Vir-
.	.	.	.	.	.	2.B-\	Vir-	.	.	.	.
.	.	.	.	4c\	.	.	.	.	.	.	.
.	.	.	.	2d\	.	.	.	.	.	.	.
.	.	.	.	.	.	4c\	.	.	.	.	.
.	.	.	.	2G/	-tus	2d\	.	.	.	.	.
=89	=89	=89	=89	=89	=89	=89	=89	=89	=89	=89	=89
0r	.	0r	.	2.B-\	sanc-	2G/	-tus	0r	.	1b-	-tus
.	.	.	.	.	.	2.B-\	sanc-	.	.	.	.
.	.	.	.	4c\	.	.	.	.	.	.	.
.	.	.	.	2d\	.	.	.	.	.	[1b-	sanc-
.	.	.	.	.	.	4c\	.	.	.	.	.
.	.	.	.	2G/	-ti	2d\	.	.	.	.	.
=90	=90	=90	=90	=90	=90	=90	=90	=90	=90	=90	=90
0r	.	0r	.	2B-\	spi-	2G/	-ti	0r	.	1b-]	.
.	.	.	.	2G/	.	2.g\	spi-	.	.	.	.
.	.	.	.	1A	-ri-	.	.	.	.	1cc	-ti
.	.	.	.	.	.	4f#i\	.	.	.	.	.
.	.	.	.	.	.	4f#i\	-ri-	.	.	.	.
.	.	.	.	.	.	4e\	.	.	.	.	.
=91	=91	=91	=91	=91	=91	=91	=91	=91	=91	=91	=91
0r	.	0r	.	1.G	-tus,	2g\	-tus,	0r	.	1.b-	spi-
.	.	.	.	.	.	4G/	spi-	.	.	.	.
.	.	.	.	.	.	4A/	.	.	.	.	.
.	.	.	.	.	.	4B-\	.	.	.	.	.
.	.	.	.	.	.	4c\	.	.	.	.	.
.	.	.	.	4F/	.	[2d\	.	.	.	4a/	.
.	.	.	.	4E/	.	.	.	.	.	4g/	.
=92	=92	=92	=92	=92	=92	=92	=92	=92	=92	=92	=92
0r	.	0r	.	[0D	.	4d\]	.	0f	Vir-	1a	.
.	.	.	.	.	.	4c\	.	.	.	.	.
.	.	.	.	.	.	2A/	.	.	.	.	.
.	.	.	.	.	.	1B-	-ri-	.	.	2.d/	.
.	.	.	.	.	.	.	.	.	.	4e/	.
=93	=93	=93	=93	=93	=93	=93	=93	=93	=93	=93	=93
0r	.	0r	.	0D]	.	2A/	-tus,	1f	-tus	4f/	.
.	.	.	.	.	.	.	.	.	.	4g/	.
.	.	.	.	.	.	2D/	spi-	.	.	2.a/	.
.	.	.	.	.	.	2.F/	.	[1f	sanc-	.	.
.	.	.	.	.	.	.	.	.	.	4g/	.
.	.	.	.	.	.	.	.	.	.	4a/	.
.	.	.	.	.	.	4G/	.	.	.	4b-\	.
=94	=94	=94	=94	=94	=94	=94	=94	=94	=94	=94	=94
0r	.	0r	.	0r	.	2A/	.	1f]	.	2cc\	.
.	.	.	.	.	.	1B-	.	.	.	1dd	.
.	.	.	.	.	.	.	.	1g	-ti	.	.
.	.	.	.	.	.	4A/	.	.	.	4cc\	.
.	.	.	.	.	.	4G/	.	.	.	4b-\	.
=95	=95	=95	=95	=95	=95	=95	=95	=95	=95	=95	=95
0r	.	0r	.	0r	.	2B-\	.	1.f	spi-	2dd\	.
.	.	.	.	.	.	2.A/	.	.	.	2cc\	.
.	.	.	.	.	.	.	.	.	.	2a/	.
.	.	.	.	.	.	4F/	.	.	.	.	.
.	.	.	.	.	.	2B-\	.	2d\	.	2dd\	.
=96	=96	=96	=96	=96	=96	=96	=96	=96	=96	=96	=96
0r	.	0r	.	0r	.	2A/	.	1e	-ri-	2cc\	.
.	.	.	.	.	.	2G/	.	.	.	1b-	.
.	.	.	.	.	.	2.B-\	-ri-	[1d	-tus	.	.
.	.	.	.	.	.	.	.	.	.	4a/	-ri-
.	.	.	.	.	.	4c\	.	.	.	4g/	.
=97	=97	=97	=97	=97	=97	=97	=97	=97	=97	=97	=97
2r	.	2.BB-/	Vir-	0B-	vir-	[0d	-tus	1d]	.	1f	-tus
2.BB-/	Vir-	.	.	.	.	.	.	.	.	.	.
.	.	4C/	.	.	.	.	.	.	.	.	.
.	.	2D\	.	.	.	.	.	1r	.	1r	.
4C/	.	.	.	.	.	.	.	.	.	.	.
2D\	.	2GG/	-tus	.	.	.	.	.	.	.	.
=98	=98	=98	=98	=98	=98	=98	=98	=98	=98	=98	=98
2GG/	-tus	2.BB-/	sanc-	1B-	-tus	0d]	.	0r	.	0r	.
2.BB-/	sanc-	.	.	.	.	.	.	.	.	.	.
.	.	4C/	.	.	.	.	.	.	.	.	.
.	.	2D\	.	[1B-	sanc-	.	.	.	.	.	.
4C/	.	.	.	.	.	.	.	.	.	.	.
2D\	.	2GG/	-ti	.	.	.	.	.	.	.	.
=99	=99	=99	=99	=99	=99	=99	=99	=99	=99	=99	=99
2GG/	-ti	2BB-/	spi-	1B-]	.	0r	.	0r	.	0r	.
2.G\	spi-	2GG/	.	.	.	.	.	.	.	.	.
.	.	1AA	-ri-	1c	-ti	.	.	.	.	.	.
4F#i\	.	.	.	.	.	.	.	.	.	.	.
4F#i\	-ri-	.	.	.	.	.	.	.	.	.	.
4E\	.	.	.	.	.	.	.	.	.	.	.
=100	=100	=100	=100	=100	=100	=100	=100	=100	=100	=100	=100
1.G	-tus	1GG	-tus	1.B-	spi-	1r	.	0r	.	0r	.
.	.	1G	.	.	.	2r	.	.	.	.	.
4F\	.	.	.	2G/	.	[2d\	O-	.	.	.	.
4E\	.	.	.	.	.	.	.	.	.	.	.
=101	=101	=101	=101	=101	=101	=101	=101	=101	=101	=101	=101
1D	.	2r	.	1A	-ri-	4d\]	.	0r	.	0r	.
.	.	.	.	.	.	4c\	.	.	.	.	.
.	.	2F\	spi-	.	.	2A/	-pus	.	.	.	.
1GG	.	4G\	.	1G	-tus,	1B-	il-	.	.	.	.
.	.	4D\	.	.	.	.	.	.	.	.	.
.	.	2G\	-ri-	.	.	.	.	.	.	.	.
=102	=102	=102	=102	=102	=102	=102	=102	=102	=102	=102	=102
2r	.	0F	-tus	0r	.	1A	-lud,	2r	.	0a	O-
2.D\	O-	.	.	.	.	.	.	2.d\	O-	.	.
.	.	.	.	.	.	1D	.	.	.	.	.
4E\	.	.	.	.	.	.	.	4c\	.	.	.
2F\	-pus	.	.	.	.	.	.	2A/	-pus	.	.
=103	=103	=103	=103	=103	=103	=103	=103	=103	=103	=103	=103
2G\	il-	1r	.	0r	.	2.d\	il-	1B-	il-	1g	-pus
2GG/	.	.	.	.	.	.	.	.	.	.	.
.	.	.	.	.	.	4e\	.	.	.	.	.
1D	-lud	2r	.	.	.	1f	-lud,	2A/	.	[1a	il-
.	.	[2D\	O-	.	.	.	.	[2F/	.	.	.
=104	=104	=104	=104	=104	=104	=104	=104	=104	=104	=104	=104
0r	.	4D\]	.	0r	.	2r	.	2F/]	.	1a]	.
.	.	4E\	.	.	.	.	.	.	.	.	.
.	.	2F\	-pus	.	.	2f\	il-	2D/	.	.	.
.	.	2G\	il-	.	.	2.d\	-lud,	1G	-lud	1b-	-lud
.	.	2GG/	.	.	.	.	.	.	.	.	.
.	.	.	.	.	.	4e\	.	.	.	.	.
=105	=105	=105	=105	=105	=105	=105	=105	=105	=105	=105	=105
2r	.	0D	-lud	0A	O-	0f	.	1.F	ce-	1.a	ce-
2.D\	il-	.	.	.	.	.	.	.	.	.	.
4C/	.	.	.	.	.	.	.	.	.	.	.
2D\	.	.	.	.	.	.	.	2D/	.	2f/	.
=106	=106	=106	=106	=106	=106	=106	=106	=106	=106	=106	=106
1GG	-lud	1r	.	1G	-pus	0r	.	1B-	.	1g	-li-
1D	.	2r	.	[1A	il-	.	.	2A/	.	1f	-tus
.	.	[2D\	ce-	.	.	.	.	[2F/	.	.	.
=107	=107	=107	=107	=107	=107	=107	=107	=107	=107	=107	=107
0r	.	4D\]	.	1A]	.	2r	.	2F/]	.	0r	.
.	.	4E\	.	.	.	.	.	.	.	.	.
.	.	2F\	.	.	.	2f\	ce-	2D/	.	.	.
.	.	2G\	.	1B-	-lud	2.d\	-li-	1G	-li-	.	.
.	.	2GG/	-li-	.	.	.	.	.	.	.	.
.	.	.	.	.	.	4e\	.	.	.	.	.
=108	=108	=108	=108	=108	=108	=108	=108	=108	=108	=108	=108
2r	.	0D	-tus	1.A	ce-	4f\	-tus	1F	-tus	1r	.
.	.	.	.	.	.	4d\	.	.	.	.	.
2.D\	ce-	.	.	.	.	2.f\	O-	.	.	.	.
.	.	.	.	.	.	.	.	1D	.	1a	O-
4C/	.	.	.	.	.	4e\	.	.	.	.	.
2D\	-li-	.	.	2F/	.	4d\	-pe-	.	.	.	.
.	.	.	.	.	.	4c\	.	.	.	.	.
=109	=109	=109	=109	=109	=109	=109	=109	=109	=109	=109	=109
1GG	-tus	1r	.	1G	-li-	4B-\	-ra-	2r	.	2b-\	-pe-
.	.	.	.	.	.	4G/	.	.	.	.	.
.	.	.	.	.	.	2B-\	.	2d\	O-	2g/	.
1D	.	2r	.	1F	-tus	1A	-tur,	1f	-pe-	1a	-ra-
.	.	2D\	O-	.	.	.	.	.	.	.	.
=110	=110	=110	=110	=110	=110	=110	=110	=110	=110	=110	=110
1r	.	2.E\	-pe-	2r	.	1r	.	1e	-ra-	0g	-tur,
.	.	.	.	2G/	O-	.	.	.	.	.	.
.	.	4F\	.	.	.	.	.	.	.	.	.
2r	.	1G	.	1B-	-pe-	2r	.	1d	-tur,	.	.
[2G\	O-	.	.	.	.	2d\	O-	.	.	.	.
=111	=111	=111	=111	=111	=111	=111	=111	=111	=111	=111	=111
2G\]	.	1D	-ra-	1A	-ra-	4f\	-pe-	1r	.	2r	.
.	.	.	.	.	.	4e\	.	.	.	.	.
2F#i\	-pe-	.	.	.	.	4d\	.	.	.	2a/	o-
.	.	.	.	.	.	4c\	.	.	.	.	.
1G	-ra-	1G	.	1G	-tur,	4B-\	.	1d	o-	2b-\	-pe-
.	.	.	.	.	.	4G/	.	.	.	.	.
.	.	.	.	.	.	2B-\	.	.	.	2g/	.
=112	=112	=112	=112	=112	=112	=112	=112	=112	=112	=112	=112
[0D	.	1F	-tur,	0r	.	2A/	-ra-	1.f	-pe-	1a	-ra-
.	.	.	.	.	.	2D/	.	.	.	.	.
.	.	2r	.	.	.	2.F/	.	.	.	1d	-tur,
.	.	[2F\	o-	.	.	.	.	4e\	.	.	.
.	.	.	.	.	.	4G/	.	4d\	.	.	.
=113	=113	=113	=113	=113	=113	=113	=113	=113	=113	=113	=113
1D]	.	2F\]	.	1r	.	2.A/	.	2.f\	-ra-	0r	.
.	.	2D\	-pe-	.	.	.	.	.	.	.	.
.	.	.	.	.	.	4B-\	.	4g\	.	.	.
1C	.	1E	-ra-	1G	o-	1c	.	1e	.	.	.
=114	=114	=114	=114	=114	=114	=114	=114	=114	=114	=114	=114
1BB-	.	1F	-tur.	1.B-	-pe-	1d	-tur,	[0d	-tur.	2r	.
.	.	.	.	.	.	.	.	.	.	2.dd\	o-
1GG	.	1G	.	.	.	1B-	.	.	.	.	.
.	.	.	.	.	.	.	.	.	.	4cc\	-pe-
.	.	.	.	4A/	.	.	.	.	.	[2b-\	-ra-
.	.	.	.	4G/	.	.	.	.	.	.	.
=115	=115	=115	=115	=115	=115	=115	=115	=115	=115	=115	=115
0D	.	0D	.	2.B-\	-ra-	2r	.	0d]	.	2b-\]	.
.	.	.	.	.	.	2.d\	o-	.	.	4a/	.
.	.	.	.	4c\	.	.	.	.	.	4g/	.
.	.	.	.	1A	.	.	.	.	.	4f#i/	.
.	.	.	.	.	.	4c\	.	.	.	4g/	.
.	.	.	.	.	.	2A/	-pe-	.	.	4a/	.
.	.	.	.	.	.	.	.	.	.	4f#i/	.
=116	=116	=116	=116	=116	=116	=116	=116	=116	=116	=116	=116
0GG	-tur,	2r	.	[0G	-tur.	2B-\	-ra-	0r	.	2g/	-tur.
.	.	2B-\	in-	.	.	2G/	.	.	.	2dd\	In-
.	.	2G\	-i-	.	.	2.B-\	.	.	.	2b-\	-i-
.	.	[2B-\	-tus	.	.	.	.	.	.	[2dd\	-tus
.	.	.	.	.	.	4c\	.	.	.	.	.
=117	=117	=117	=117	=117	=117	=117	=117	=117	=117	=117	=117
0r	.	4B-\]	.	0G]	.	1d	-tur.	2r	.	4dd\]	.
.	.	4A\	et	.	.	.	.	.	.	4cc\	et
.	.	1G	ex-	.	.	.	.	2d\	In-	1b-	ex-
.	.	.	.	.	.	1G	.	2B-\	-i-	.	.
.	.	4F\	.	.	.	.	.	[2d\	-tus-	4a/	.
.	.	4E\	.	.	.	.	.	.	.	4g/	.
=118	=118	=118	=118	=118	=118	=118	=118	=118	=118	=118	=118
1.BB-	in-	2.D\	.	0r	.	0d	.	4d\]	.	2f/	.
.	.	.	.	.	.	.	.	4c\	-et	.	.
.	.	.	.	.	.	.	.	1B-	ex-	2g/	-i-
.	.	4E\	.	.	.	.	.	.	.	.	.
.	.	2F\	.	.	.	.	.	.	.	1d	-tus,
2BB-/	-i-	2G\	-i-	.	.	.	.	4A/	.	.	.
.	.	.	.	.	.	.	.	4G/	.	.	.
=119	=119	=119	=119	=119	=119	=119	=119	=119	=119	=119	=119
1BB-	-tus	1D	-tus,	0r	.	0r	.	2F/	.	0r	.
.	.	.	.	.	.	.	.	2.G/	.	.	.
1C	et	1r	.	.	.	.	.	.	.	.	.
.	.	.	.	.	.	.	.	4E/	.	.	.
.	.	.	.	.	.	.	.	[2A/	.	.	.
=120	=120	=120	=120	=120	=120	=120	=120	=120	=120	=120	=120
2BB-/	ex-	0r	.	0r	.	0r	.	4A/]	.	0r	.
.	.	.	.	.	.	.	.	4G/	.	.	.
2GG/	.	.	.	.	.	.	.	2.G/	-i-	.	.
1AA	-i-	.	.	.	.	.	.	.	.	.	.
.	.	.	.	.	.	.	.	4F#i/	.	.	.
.	.	.	.	.	.	.	.	4F#i/	.	.	.
.	.	.	.	.	.	.	.	4E/	.	.	.
=121	=121	=121	=121	=121	=121	=121	=121	=121	=121	=121	=121
[0GG	-tus,	2r	.	0r	.	0r	.	[0G	-tus	2r	.
.	.	2B-\	in-	.	.	.	.	.	.	2dd\	in-
.	.	2G\	-i-	.	.	.	.	.	.	2b-\	-i-
.	.	[2B-\	-tus	.	.	.	.	.	.	[2dd\	-tus
=122	=122	=122	=122	=122	=122	=122	=122	=122	=122	=122	=122
0GG]	.	4B-\]	.	1.B-	In-	0r	.	0G]	.	4dd\]	.
.	.	4A\	et	.	.	.	.	.	.	4cc\	et-
.	.	1G	ex-	.	.	.	.	.	.	1b-	-ex-
.	.	4F\	.	2B-\	-i-	.	.	.	.	4a/	.
.	.	4E\	.	.	.	.	.	.	.	4g/	.
=123	=123	=123	=123	=123	=123	=123	=123	=123	=123	=123	=123
0r	.	2D\	.	1B-	-tus	0r	.	0r	.	2f/	.
.	.	2.E\	.	.	.	.	.	.	.	2.g/	.
.	.	.	.	1c	et	.	.	.	.	.	.
.	.	4C/	.	.	.	.	.	.	.	4e/	.
.	.	2F\	.	.	.	.	.	.	.	[2a/	.
=124	=124	=124	=124	=124	=124	=124	=124	=124	=124	=124	=124
0r	.	2G\	.	2B-\	ex-	0r	.	0r	.	4a/]	.
.	.	.	.	.	.	.	.	.	.	4g/	.
.	.	2E\	.	2G/	.	.	.	.	.	2.g/	-i-
.	.	1D	-i-	1A	-i-	.	.	.	.	.	.
.	.	.	.	.	.	.	.	.	.	4f#i/	.
.	.	.	.	.	.	.	.	.	.	4f#i/	.
.	.	.	.	.	.	.	.	.	.	4e/	.
=125	=125	=125	=125	=125	=125	=125	=125	=125	=125	=125	=125
2r	.	[0GG	-tus	[0G	-tus	2r	.	0r	.	[0g	-tus
2B-\	in-	.	.	.	.	2d\	In-	.	.	.	.
2G\	-i-	.	.	.	.	2B-\	-i-	.	.	.	.
[2B-\	-tus	.	.	.	.	[2d\	-tus	.	.	.	.
=126	=126	=126	=126	=126	=126	=126	=126	=126	=126	=126	=126
4B-\]	.	0GG]	.	0G]	.	4d\]	.	1r	.	0g]	.
4A\	et	.	.	.	.	4c\	et	.	.	.	.
1G	ex-	.	.	.	.	1B-	ex-	.	.	.	.
.	.	.	.	.	.	.	.	1d	Par-	.	.
4F\	-i-	.	.	.	.	4A/	-i-	.	.	.	.
4E\	.	.	.	.	.	4G/	.	.	.	.	.
=127	=127	=127	=127	=127	=127	=127	=127	=127	=127	=127	=127
1D	-tus	1.D	Pa-	1.A	Par-	1F	-tus	2.f\	-tus	0r	.
.	.	.	.	.	.	.	.	4d\	.	.	.
1r	.	.	.	.	.	1r	.	2f\	.	.	.
.	.	2E\	-tus	2G/	-tus	.	.	2e\	tu-	.	.
=128	=128	=128	=128	=128	=128	=128	=128	=128	=128	=128	=128
0r	.	1F	tu-	1A	tu-	0r	.	2c\	-i	0r	.
.	.	.	.	.	.	.	.	1d	pe-	.	.
.	.	1G	-i	1B-	-i	.	.	.	.	.	.
.	.	.	.	.	.	.	.	[2e\	.	.	.
=129	=129	=129	=129	=129	=129	=129	=129	=129	=129	=129	=129
0r	.	2.D\	pe-	2A/	pe-	1r	.	4e\]	.	0r	.
.	.	.	.	.	.	.	.	4d\	.	.	.
.	.	.	.	2F/	.	.	.	1d	.	.	.
.	.	4F\	.	.	.	.	.	.	.	.	.
.	.	1E	-ni-	1G	-ni-	2r	.	.	.	.	.
.	.	.	.	.	.	2e\	Par-	2c#i\	-ni-	.	.
=130	=130	=130	=130	=130	=130	=130	=130	=130	=130	=130	=130
1.D	Par-	1D	-tus	1F	-tus	2.f\	-tus	1d	-tus	1.a	Par-
.	.	.	.	.	.	4d\	.	.	.	.	.
.	.	1r	.	1r	.	2f\	.	1r	.	.	.
2E\	-tus	.	.	.	.	2e\	tu-	.	.	2g/	-tus
=131	=131	=131	=131	=131	=131	=131	=131	=131	=131	=131	=131
1F	tu-	0r	.	0r	.	2c\	-i	0r	.	1a	tu-
.	.	.	.	.	.	1d	pe-	.	.	.	.
1G	-i	.	.	.	.	.	.	.	.	1b-	-i
.	.	.	.	.	.	[2e\	.	.	.	.	.
=132	=132	=132	=132	=132	=132	=132	=132	=132	=132	=132	=132
2.D\	pe-	0r	.	0r	.	4e\]	.	1r	.	2a/	pe-
.	.	.	.	.	.	4d\	.	.	.	.	.
.	.	.	.	.	.	1d	.	.	.	2f/	.
4F\	.	.	.	.	.	.	.	.	.	.	.
1E	-ni-	.	.	.	.	.	.	1G	Quis	1g	-ni-
.	.	.	.	.	.	2c#i\	-ni-	.	.	.	.
=133	=133	=133	=133	=133	=133	=133	=133	=133	=133	=133	=133
0D	-tus	1r	.	1r	.	0d	-tus	1A	scru-	0f	-tus
.	.	1D	Quis	1A	Quis	.	.	1A	-ta-	.	.
=134	=134	=134	=134	=134	=134	=134	=134	=134	=134	=134	=134
0r	.	2GG/	scru-	1B-	scru-	2r	.	1.G	.	0r	.
.	.	2.B-\	-ta-	.	.	2d\	Quis	.	.	.	.
.	.	.	.	1G	.	2.d\	scru-	.	.	.	.
.	.	4A\	.	.	.	.	.	.	.	.	.
.	.	[2G\	.	.	.	.	.	4F/	.	.	.
.	.	.	.	.	.	4e\	.	4E/	.	.	.
=135	=135	=135	=135	=135	=135	=135	=135	=135	=135	=135	=135
1r	.	2G\]	.	0A	-ta-	4f\	-ta-	0D	-tur,	1r	.
.	.	.	.	.	.	4d\	.	.	.	.	.
.	.	4F#i\	.	.	.	2.f\	.	.	.	.	.
.	.	4E\	.	.	.	.	.	.	.	.	.
1D	Quis	1F#i	.	.	.	.	.	.	.	1a	Quis
.	.	.	.	.	.	4e\	.	.	.	.	.
.	.	.	.	.	.	4d\	.	.	.	.	.
.	.	.	.	.	.	4c\	.	.	.	.	.
=136	=136	=136	=136	=136	=136	=136	=136	=136	=136	=136	=136
2GG/	scru-	0G	-tur?	1.G	-tur,	2B-\	.	2r	.	1b-	scru-
2.B-\	-ta-	.	.	.	.	2G/	.	2d\	quis	.	.
.	.	.	.	.	.	2.B-\	.	2.d\	scru-	1g	.
4A\	.	.	.	.	.	.	.	.	.	.	.
[2G\	.	.	.	4F/	.	.	.	.	.	.	.
.	.	.	.	4E/	.	4c\	.	4e\	.	.	.
=137	=137	=137	=137	=137	=137	=137	=137	=137	=137	=137	=137
2G\]	.	1r	.	1D	.	0d	-tur,	4f\	.	0a	-ta-
.	.	.	.	.	.	.	.	4d\	.	.	.
4F#i\	.	.	.	.	.	.	.	2.f\	-ta-	.	.
4E\	.	.	.	.	.	.	.	.	.	.	.
1F#i	.	1D	quis	1A	quis	.	.	.	.	.	.
.	.	.	.	.	.	.	.	4e\	.	.	.
.	.	.	.	.	.	.	.	4d\	.	.	.
.	.	.	.	.	.	.	.	4c\	.	.	.
=138	=138	=138	=138	=138	=138	=138	=138	=138	=138	=138	=138
1.G	.	2GG/	scru-	1B-	scru-	2r	.	2B-\	.	0g	-tur?
.	.	2.B-\	-ta-	.	.	2d\	quis	2G/	.	.	.
.	.	.	.	1G	.	2.d\	scru-	2.B-\	.	.	.
.	.	4A\	.	.	.	.	.	.	.	.	.
4F\	.	[2G\	.	.	.	.	.	.	.	.	.
4E\	.	.	.	.	.	4e\	.	4c\	.	.	.
=139	=139	=139	=139	=139	=139	=139	=139	=139	=139	=139	=139
2.D\	.	2G\]	.	0A	-ta-	4f\	-ta-	0d	-tur?	0r	.
.	.	.	.	.	.	4d\	.	.	.	.	.
.	.	4F#i\	.	.	.	2.f\	.	.	.	.	.
4C/	.	4E\	.	.	.	.	.	.	.	.	.
1D	.	1F#i	.	.	.	.	.	.	.	.	.
.	.	.	.	.	.	4e\	.	.	.	.	.
.	.	.	.	.	.	4d\	.	.	.	.	.
.	.	.	.	.	.	4c\	.	.	.	.	.
=140	=140	=140	=140	=140	=140	=140	=140	=140	=140	=140	=140
*M3/1	*	*M3/1	*	*M3/1	*	*M3/1	*	*M3/1	*	*M3/1	*
*met(3)	*	*met(3)	*	*met(3)	*	*met(3)	*	*met(3)	*	*met(3)	*
0.GG	-tur?	0.G	-tur?	0.G	-tur?	0B-	-tur?	1r	.	0dd	De-
.	.	.	.	.	.	.	.	0g	De-	.	.
.	.	.	.	.	.	1G	De-	.	.	1b-	-i
=141	=141	=141	=141	=141	=141	=141	=141	=141	=141	=141	=141
0.r	.	0.r	.	0.r	.	1c	-i	1e	-i	0cc	pro-
.	.	.	.	.	.	1A	pro-	1f	pro-	.	.
.	.	.	.	.	.	1B-	-vi-	1d	-vi-	1dd	-vi-
=142	=142	=142	=142	=142	=142	=142	=142	=142	=142	=142	=142
0.r	.	0.r	.	0.r	.	0A	-den-	1e	-den-	0cc	-den-
.	.	.	.	.	.	.	.	1f	.	.	.
.	.	.	.	.	.	1G	-ti-	1g	-ti-	1b-	-ti-
=143	=143	=143	=143	=143	=143	=143	=143	=143	=143	=143	=143
1r	.	1r	.	0d	De-	0.d	-a,	0d	-a,	1a	-a,
1r	.	0G	De-	.	.	.	.	.	.	1.b-	.
1GG	De-	.	.	1B-	-i	.	.	1r	.	.	.
.	.	.	.	.	.	.	.	.	.	2g/	.
=144	=144	=144	=144	=144	=144	=144	=144	=144	=144	=144	=144
1C	-i	1E	-i	0c	pro-	0.r	.	0.r	.	1g	.
1AA	pro-	1F	pro-	.	.	.	.	.	.	1a	.
1BB-	-vi-	1D	-vi-	1d	-vi-	.	.	.	.	1f	.
=145	=145	=145	=145	=145	=145	=145	=145	=145	=145	=145	=145
0AA	-den-	1E	-den-	0c	-den-	0.r	.	0.r	.	0cc	.
.	.	1F	.	.	.	.	.	.	.	.	.
1GG	-ti-	1G	-ti	1B-	-ti-	.	.	.	.	1r	.
=146	=146	=146	=146	=146	=146	=146	=146	=146	=146	=146	=146
0D	-a	1D	a	0.A	-a	1r	.	0a	de-	0.r	.
.	.	1r	.	.	.	0d	de-	.	.	.	.
1r	.	1D	de-	.	.	.	.	1f	-i	.	.
=147	=147	=147	=147	=147	=147	=147	=147	=147	=147	=147	=147
0.r	.	1G	-i	0.r	.	1B-	-i	0g	pro-	0.r	.
.	.	1E	pro-	.	.	1c	pro-	.	.	.	.
.	.	1F	-vi-	.	.	1A	-vi-	1a	-vi-	.	.
=148	=148	=148	=148	=148	=148	=148	=148	=148	=148	=148	=148
0.r	.	0E-	-den-	0.r	.	1B-	-den-	0g	-den-	0.r	.
.	.	.	.	.	.	1c	.	.	.	.	.
.	.	1D	-ti-	.	.	1d	-ti-	1f	-ti-	.	.
=149	=149	=149	=149	=149	=149	=149	=149	=149	=149	=149	=149
0AA	que	1.A	-a	0c	Que	0A	-a,	0e	-a,	0cc	Que
.	.	2E\	.	.	.	.	.	.	.	.	.
1AA	dis-	1F	.	1A	dis-	1r	.	1r	.	1cc	dis-
=150	=150	=150	=150	=150	=150	=150	=150	=150	=150	=150	=150
1GG	-po-	0G	.	0B-	-po-	0.r	.	0.r	.	1.b-	-po-
1G	.	.	.	.	.	.	.	.	.	.	.
.	.	.	.	.	.	.	.	.	.	2g/	.
1F	-nit	1r	.	1c	-nit	.	.	.	.	1a	-nit
=151	=151	=151	=151	=151	=151	=151	=151	=151	=151	=151	=151
1G	om-	0.r	.	1B-	om-	0.r	.	0.r	.	1.g	om-
1C	.	.	.	1c	.	.	.	.	.	.	.
.	.	.	.	.	.	.	.	.	.	2e/	.
1D	-ni-	.	.	1A	-ni-	.	.	.	.	1f#i	-ni-
=152	=152	=152	=152	=152	=152	=152	=152	=152	=152	=152	=152
0GG	-a,	0G	Que	0.G	-a	0B-	Que	0g	Que	0g	-a
1C	dis-	1G	dis-	.	.	1c	dis-	1e	dis-	1r	.
=153	=153	=153	=153	=153	=153	=153	=153	=153	=153	=153	=153
1D	-po-	1F	-po-	0.r	.	1A	-po-	0f	-po-	0.r	.
1BB-	.	1B-	.	.	.	1d	.	.	.	.	.
1E-	-nit-	1G	-nit	.	.	1c	-nit	1g	-nit	.	.
=154	=154	=154	=154	=154	=154	=154	=154	=154	=154	=154	=154
1D	-om-	1A	om-	0.r	.	1d	om-	1f	om-	0.r	.
1E-i	.	1G	.	.	.	1B-	.	1g	.	.	.
1C	-ni-	1A	-ni-	.	.	1c	-ni-	1e	-ni-	.	.
=155	=155	=155	=155	=155	=155	=155	=155	=155	=155	=155	=155
0D	-a,	1F	-a	0F	Tam	0A	-a	0d	-a	0a	Tam
.	.	0D	.	.	.	.	.	.	.	.	.
1BB-	Tam	.	.	1B-	su-	1r	.	1r	.	1d	su-
=156	=156	=156	=156	=156	=156	=156	=156	=156	=156	=156	=156
1C	su-	1r	.	1G	.	1r	.	0c	Tam	1e	.
1AA	.	1r	.	0A	-a-	1r	.	.	.	0f	-a-
1D	-a-	1D	Tam	.	.	1A	Tam	1f	su-	.	.
=157	=157	=157	=157	=157	=157	=157	=157	=157	=157	=157	=157
1GG	-ve,	1BB-	su-	0G	-ve,	1B-	su-	1d	.	0g	-ve,
1G	.	0C	-a-	.	.	1G	.	0e	-a-	.	.
1E	tam	.	.	1r	.	1c	-a-	.	.	1r	.
=158	=158	=158	=158	=158	=158	=158	=158	=158	=158	=158	=158
1F	su-	0.D	-ve,	0F	tam	0A	-ve,	0d	-ve,	0a	tam
1D	.	.	.	.	.	.	.	.	.	.	.
1BB-	-a-	.	.	1B-	su-	1r	.	1r	.	1d	su-
=159	=159	=159	=159	=159	=159	=159	=159	=159	=159	=159	=159
1C	-ve,	1r	.	1G	.	1r	.	0c	tam	1e	.
1AA	.	1r	.	0A	-a-	1r	.	.	.	0f	-a-
1D	tam	1D	tam	.	.	1A	tam	1f	su-	.	.
=160	=160	=160	=160	=160	=160	=160	=160	=160	=160	=160	=160
1GG	su-	1G	su-	[0.G	-ve,	1B-	su-	1d	.	0g	-ve,
1.C	-a-	1.E	-a-	.	.	0c	-a-	0e	-a-	.	.
.	.	.	.	.	.	.	.	.	.	1r	.
2BB-/	.	2F\	.	.	.	.	.	.	.	.	.
=161	=161	=161	=161	=161	=161	=161	=161	=161	=161	=161	=161
0.GG	-ve,	0.G	-ve,	0.G]	.	1B-	-ve,	0d	-ve,	0dd	Tu-
.	.	.	.	.	.	1G	.	.	.	.	.
.	.	.	.	.	.	1g	Tu-	1G	Tu-	1b-	-a
=162	=162	=162	=162	=162	=162	=162	=162	=162	=162	=162	=162
0.r	.	0.r	.	0.r	.	1e	-a	1c	-a	0cc	pu-
.	.	.	.	.	.	1f	pu-	1A	pu-	.	.
.	.	.	.	.	.	1d	-er-	1B-	-er	1dd	-er-
=163	=163	=163	=163	=163	=163	=163	=163	=163	=163	=163	=163
0.r	.	0.r	.	0.r	.	1e	-pe-	0A	pe-	0cc	-pe-
.	.	.	.	.	.	1f	.	.	.	.	.
.	.	.	.	.	.	1g	-ri-	1G	-ri-	1b-	-ri-
=164	=164	=164	=164	=164	=164	=164	=164	=164	=164	=164	=164
1r	.	1r	.	0d	Tu-	0d	-a,	0.d	-a,	1a	-a-
1r	.	0G	Tu-	.	.	.	.	.	.	1.b-	.
1GG	Tu-	.	.	1B-	-a	1r	.	.	.	.	.
.	.	.	.	.	.	.	.	.	.	2g/	.
=165	=165	=165	=165	=165	=165	=165	=165	=165	=165	=165	=165
1C	-a	1E	-a	0c	pu-	0.r	.	0.r	.	1g	.
1AA	pu-	1F	pu-	.	.	.	.	.	.	1a	.
1BB-	-er-	1D	-er-	1d	-er-	.	.	.	.	1f	.
=166	=166	=166	=166	=166	=166	=166	=166	=166	=166	=166	=166
0AA	-pe-	1E	-pe-	0c	-pe-	0.r	.	0.r	.	0cc	.
.	.	1F	.	.	.	.	.	.	.	.	.
1GG	-ri-	1G	-ri-	1B-	-ri-	.	.	.	.	1r	.
=167	=167	=167	=167	=167	=167	=167	=167	=167	=167	=167	=167
0D	-a,	1D	-a,	0A	-a,	0a	tu-	1r	.	0.r	.
.	.	1r	.	.	.	.	.	0d	tu-	.	.
1r	.	1D	tu-	1r	.	1f	-a	.	.	.	.
=168	=168	=168	=168	=168	=168	=168	=168	=168	=168	=168	=168
0.r	.	1G	-a	0.r	.	0g	pu-	1B-	-a	0.r	.
.	.	1E	pu-	.	.	.	.	1c	pu-	.	.
.	.	1F	-er-	.	.	1a	-er-	1A	-er-	.	.
=169	=169	=169	=169	=169	=169	=169	=169	=169	=169	=169	=169
0.r	.	0E-	-pe-	0.r	.	0g	-pe-	1B-	-pe-	0.r	.
.	.	.	.	.	.	.	.	1c	.	.	.
.	.	1D	-ri-	.	.	1f	-ri-	1d	-ri-	.	.
=170	=170	=170	=170	=170	=170	=170	=170	=170	=170	=170	=170
0AA	Trans-	1.A	-a	0c	Trans-	0e	-a	0A	-a	0cc	-Trans-
.	.	2E\	.	.	.	.	.	.	.	.	.
1AA	-fer	1F#i	.	1A	-fert	1r	.	1r	.	1cc	-fert
=171	=171	=171	=171	=171	=171	=171	=171	=171	=171	=171	=171
1GG	in	0G	.	0B-	in	0.r	.	0.r	.	1.b-	in-
1G	.	.	.	.	.	.	.	.	.	.	.
.	.	.	.	.	.	.	.	.	.	2g/	.
1F	mis-	1r	.	1c	mis-	.	.	.	.	1a	-mis-
=172	=172	=172	=172	=172	=172	=172	=172	=172	=172	=172	=172
1G	-te-	0.r	.	1B-	-te-	0.r	.	0.r	.	1.g	-te-
1C	.	.	.	1c	.	.	.	.	.	.	.
.	.	.	.	.	.	.	.	.	.	2e/	.
1D	-ri-	.	.	1A	-ri-	.	.	.	.	1f#i	-ri-
=173	=173	=173	=173	=173	=173	=173	=173	=173	=173	=173	=173
0GG	-a,	0G	Trans-	0.G	-a,	0g	Trans-	0B-	Trans-	0.g	-a,
1C	mis-	1G	-fert	.	.	1e	-fert	1c	-fert	.	.
=174	=174	=174	=174	=174	=174	=174	=174	=174	=174	=174	=174
1D	-te-	1F	in	0.r	.	0f	in	1A	in	0.r	.
1BB-	.	1B-	.	.	.	.	.	1d	.	.	.
1E-	.	1G	mis-	.	.	1g	mis-	1c	mis-	.	.
=175	=175	=175	=175	=175	=175	=175	=175	=175	=175	=175	=175
1D	.	1A	-te-	0.r	.	1f	-te-	1d	-te-	0.r	.
1E-i	.	1G	.	.	.	1g	.	1B-	.	.	.
1C	-ri-	1A	-ri-	.	.	1e	-ri-	1c	-ri-	.	.
=176	=176	=176	=176	=176	=176	=176	=176	=176	=176	=176	=176
*M2/1	*	*M2/1	*	*M2/1	*	*M2/1	*	*M2/1	*	*M2/1	*
*met(C|)	*	*met(C|)	*	*met(C|)	*	*met(C|)	*	*met(C|)	*	*met(C|)	*
0D	-a,	1.F	-a,	0r	.	[0d	-a,	0A	-a	1r	.
.	.	.	.	.	.	.	.	.	.	[1dd	Ma-
.	.	2D\	.	.	.	.	.	.	.	.	.
=177	=177	=177	=177	=177	=177	=177	=177	=177	=177	=177	=177
1r	.	0D	.	0F	Ma-	0d]	.	[0f	Ma-	1dd]	.
[1BB-	Ma-	.	.	.	.	.	.	.	.	1dd	-ter
=178	=178	=178	=178	=178	=178	=178	=178	=178	=178	=178	=178
2BB-/]	.	1r	.	0B-	-ter	0r	.	1f]	.	0dd	a-
2BB-/	-ter	.	.	.	.	.	.	.	.	.	.
1BB-	a-	[1F	Ma-	.	.	.	.	1f	-ter	.	.
=179	=179	=179	=179	=179	=179	=179	=179	=179	=179	=179	=179
[0FF	-ve,	1F]	.	[0A	a-	0c	Ma-	0f	a-	0cc	-ve,
.	.	1F	-ter	.	.	.	.	.	.	.	.
=180	=180	=180	=180	=180	=180	=180	=180	=180	=180	=180	=180
0FF]	.	0F	a-	0A]	.	0f	-ter-	1c	-ve,	1r	.
.	.	.	.	.	.	.	.	[1c	ma-	[1cc	ma-
=181	=181	=181	=181	=181	=181	=181	=181	=181	=181	=181	=181
1r	.	0C	-ve,	[0Gl	-ve.	[0e	-a-	1c]	.	2cc\]	.
.	.	.	.	.	.	.	.	.	.	2cc\	-ter
[1C	ma-	.	.	.	.	.	.	1c	-ter	1cc	a-
=182	=182	=182	=182	=182	=182	=182	=182	=182	=182	=182	=182
2C/]	.	1r	.	0G_	.	0e]	.	0c	a-	0g	-ve,
2C/	-ter	.	.	.	.	.	.	.	.	.	.
1C	a-	[1G	ma-	.	.	.	.	.	.	.	.
=183	=183	=183	=183	=183	=183	=183	=183	=183	=183	=183	=183
[0GGl	-ve.	2G\]	.	0G_	.	[0dl	-ve.	[0B-l	-ve.	1dd	ma-
.	.	2G\	-ter	.	.	.	.	.	.	.	.
.	.	1G	a-	.	.	.	.	.	.	1dd	-ter
=184	=184	=184	=184	=184	=184	=184	=184	=184	=184	=184	=184
0GG_	.	[0Dl	-ve.	0G_	.	0d_	.	0B-_	.	1.dd	a-
.	.	.	.	.	.	.	.	.	.	2b-\	.
=185	=185	=185	=185	=185	=185	=185	=185	=185	=185	=185	=185
0GG]	.	0D]	.	0G]	.	0d]	.	0B-]	.	0b-l	-ve.
==	==	==	==	==	==	==	==	==	==	==	==
*-	*-	*-	*-	*-	*-	*-	*-	*-	*-	*-	*-
!!!RDF**kern: l=long note in original notation
!!!RDF**kern: i=editorial accidental
!!!RDF**kern: V=start of tuplet marker
!!!RDF**kern: Z=end of tuplet marker
!!!ENC:	Will Watson 20/05/2011; JR 2013/02 (text)
!!!END:	2013/02/20/
!!!EED:	Jesse Rodin
!!!EEV:	2013/03/08/
!!attribution-level@Jos: 1 (secure)
!!!ONB:	Translated from MusicXML and edited on 2013/03/08/ by Craig Sapp
!!muse2ps: u^(2) @{OTL2}^C^@{COM}\n@{SCT}^v85,85,85,85,85,110i2I150c70Q16z18t250l2500
!!muse2ps-z14: u^(2) @{OTL2}^C^@{COM}\n@{SCT}^v80,80,80,80,80,110i2I150c100Q16
!!!ONB: April 2013 Concert
